Newaita-dark/actions/22/draw-connector.svg

<?xml version="1.0" encoding="UTF-8"?>
<svg xmlns="http://www.w3.org/2000/svg" xmlns:xlink="http://www.w3.org/1999/xlink" width="22pt" height="22pt" viewBox="0 0 22 22" version="1.1">
<g id="surface1">
<path style=" stroke:none;fill-rule:nonzero;fill:rgb(74.117649%,74.117649%,74.117649%);fill-opacity:1;" d="M 13.230469 3.0625 C 11.097656 3.066406 8.949219 3.808594 7.277344 4.667969 L 7.277344 6.488281 C 8.953125 5.625 11.113281 4.882812 13.25 4.878906 C 13.6875 4.878906 14.121094 4.910156 14.554688 4.976562 L 14.554688 3.15625 C 14.117188 3.089844 13.675781 3.058594 13.230469 3.0625 Z M 17.214844 7.902344 C 17.628906 9.703125 17.605469 11.320312 17.140625 12.90625 L 18.960938 12.90625 C 19.425781 11.320312 19.449219 9.703125 19.035156 7.902344 Z M 2.910156 9.269531 C 2.378906 11.25 2.367188 13.003906 2.867188 14.726562 L 4.6875 14.726562 C 4.183594 13.003906 4.199219 11.25 4.730469 9.269531 Z M 14.554688 15.683594 C 12.535156 16.722656 9.820312 17.589844 7.277344 17.199219 L 7.277344 19.015625 C 9.820312 19.410156 12.535156 18.542969 14.554688 17.503906 Z M 14.554688 15.683594 "/>
<path style=" stroke:none;fill-rule:nonzero;fill:rgb(14.901961%,65.098041%,60.392159%);fill-opacity:1;" d="M 2.273438 2.902344 C 1.519531 2.902344 0.910156 3.507812 0.910156 4.265625 L 0.910156 7.902344 C 0.910156 8.660156 1.519531 9.269531 2.273438 9.269531 L 5.914062 9.269531 C 6.667969 9.269531 7.277344 8.660156 7.277344 7.902344 L 7.277344 4.265625 C 7.277344 3.507812 6.667969 2.902344 5.914062 2.902344 Z M 3.183594 4.265625 L 5.003906 4.265625 C 5.507812 4.265625 5.914062 4.671875 5.914062 5.175781 L 5.914062 6.992188 C 5.914062 7.496094 5.507812 7.902344 5.003906 7.902344 L 3.183594 7.902344 C 2.679688 7.902344 2.273438 7.496094 2.273438 6.992188 L 2.273438 5.175781 C 2.273438 4.671875 2.679688 4.265625 3.183594 4.265625 Z M 3.183594 4.265625 "/>
<path style=" stroke:none;fill-rule:nonzero;fill:rgb(14.901961%,65.098041%,60.392159%);fill-opacity:1;" d="M 15.917969 12.90625 C 15.160156 12.90625 14.554688 13.515625 14.554688 14.269531 L 14.554688 17.910156 C 14.554688 18.664062 15.160156 19.273438 15.917969 19.273438 L 19.554688 19.273438 C 20.3125 19.273438 20.921875 18.664062 20.921875 17.910156 L 20.921875 14.269531 C 20.921875 13.515625 20.3125 12.90625 19.554688 12.90625 Z M 16.828125 14.269531 L 18.648438 14.269531 C 19.152344 14.269531 19.554688 14.675781 19.554688 15.179688 L 19.554688 17 C 19.554688 17.503906 19.152344 17.910156 18.648438 17.910156 L 16.828125 17.910156 C 16.324219 17.910156 15.917969 17.503906 15.917969 17 L 15.917969 15.179688 C 15.917969 14.675781 16.324219 14.269531 16.828125 14.269531 Z M 16.828125 14.269531 "/>
<path style=" stroke:none;fill-rule:nonzero;fill:rgb(14.901961%,65.098041%,60.392159%);fill-opacity:1;" d="M 15.917969 1.535156 C 15.160156 1.535156 14.554688 2.144531 14.554688 2.902344 L 14.554688 6.539062 C 14.554688 7.296875 15.160156 7.902344 15.917969 7.902344 L 19.554688 7.902344 C 20.3125 7.902344 20.921875 7.296875 20.921875 6.539062 L 20.921875 2.902344 C 20.921875 2.144531 20.3125 1.535156 19.554688 1.535156 Z M 16.828125 2.902344 L 18.648438 2.902344 C 19.152344 2.902344 19.554688 3.304688 19.554688 3.808594 L 19.554688 5.628906 C 19.554688 6.132812 19.152344 6.539062 18.648438 6.539062 L 16.828125 6.539062 C 16.324219 6.539062 15.917969 6.132812 15.917969 5.628906 L 15.917969 3.808594 C 15.917969 3.304688 16.324219 2.902344 16.828125 2.902344 Z M 16.828125 2.902344 "/>
<path style=" stroke:none;fill-rule:nonzero;fill:rgb(14.901961%,65.098041%,60.392159%);fill-opacity:1;" d="M 2.273438 14.726562 C 1.519531 14.726562 0.910156 15.332031 0.910156 16.089844 L 0.910156 19.726562 C 0.910156 20.484375 1.519531 21.09375 2.273438 21.09375 L 5.914062 21.09375 C 6.667969 21.09375 7.277344 20.484375 7.277344 19.726562 L 7.277344 16.089844 C 7.277344 15.332031 6.667969 14.726562 5.914062 14.726562 Z M 3.183594 16.089844 L 5.003906 16.089844 C 5.507812 16.089844 5.914062 16.496094 5.914062 17 L 5.914062 18.820312 C 5.914062 19.324219 5.507812 19.726562 5.003906 19.726562 L 3.183594 19.726562 C 2.679688 19.726562 2.273438 19.324219 2.273438 18.820312 L 2.273438 17 C 2.273438 16.496094 2.679688 16.089844 3.183594 16.089844 Z M 3.183594 16.089844 "/>
</g>
</svg>

<svg xmlns="http://www.w3.org/2000/svg" width="22pt" height="22pt" viewBox="0 0 22 22"><path d="M13.23 3.063c-2.132.003-4.28.746-5.953 1.605v1.82c1.676-.863 3.836-1.605 5.973-1.61.438 0 .871.032 1.305.099v-1.82a8.324 8.324 0 0 0-1.325-.095zm3.985 4.84c.414 1.8.39 3.417-.074 5.003h1.82c.465-1.586.488-3.203.074-5.004zM2.91 9.27c-.531 1.98-.543 3.734-.043 5.457h1.82c-.503-1.723-.488-3.477.043-5.457zm11.645 6.414c-2.02 1.039-4.735 1.906-7.278 1.515v1.817c2.543.394 5.258-.473 7.278-1.512zm0 0" fill="#bdbdbd"/><path d="M2.273 2.902A1.36 1.36 0 0 0 .91 4.266v3.636c0 .758.61 1.368 1.363 1.368h3.641c.754 0 1.363-.61 1.363-1.368V4.266a1.36 1.36 0 0 0-1.363-1.364zm.91 1.364h1.82c.505 0 .911.406.911.91v1.816c0 .504-.406.91-.91.91h-1.82a.909.909 0 0 1-.91-.91V5.176c0-.504.406-.91.91-.91zm0 0M15.918 12.906a1.36 1.36 0 0 0-1.363 1.364v3.64a1.36 1.36 0 0 0 1.363 1.363h3.637c.758 0 1.367-.609 1.367-1.363v-3.64c0-.754-.61-1.364-1.367-1.364zm.91 1.364h1.82c.504 0 .907.406.907.91V17c0 .504-.403.91-.907.91h-1.82a.909.909 0 0 1-.91-.91v-1.82c0-.504.406-.91.91-.91zm0 0M15.918 1.535a1.36 1.36 0 0 0-1.363 1.367V6.54c0 .758.605 1.363 1.363 1.363h3.637a1.36 1.36 0 0 0 1.367-1.363V2.902c0-.757-.61-1.367-1.367-1.367zm.91 1.367h1.82c.504 0 .907.403.907.907v1.82c0 .504-.403.91-.907.91h-1.82a.909.909 0 0 1-.91-.91v-1.82c0-.504.406-.907.91-.907zm0 0M2.273 14.727A1.36 1.36 0 0 0 .91 16.09v3.637c0 .757.61 1.367 1.363 1.367h3.641c.754 0 1.363-.61 1.363-1.367V16.09a1.36 1.36 0 0 0-1.363-1.363zm.91 1.363h1.82c.505 0 .911.406.911.91v1.82a.905.905 0 0 1-.91.907h-1.82a.905.905 0 0 1-.91-.907V17c0-.504.406-.91.91-.91zm0 0" fill="#26a69a"/></svg>
